X:4
T:Perigord
R:Reel
C:Rick Mohr
L:1/8
M:C|
K:Am
"Am"EAAG A2EA|"G"GEDF "Am"EA,A,B,|"C"C2EC "G"B,EDB,|G,A,B,D "Em"EDB,D|
"Am"EAAG A2EA|"G"GEDF "Am"EA,A,B,|"C"C2EC "G"B,EDB,\
|1"Em"G,A,B,G, "Am"A,3D:|2"Em"G,A,B,G, "Am"A,3e|]
"A"ae^ce aeea|"G"gede geeg|"Am"ae=ce BeA^F|"G"G^FGA "Em"Bdeg|
"A"ae^ce aeea|"G"gede geed|"F"=c3A "Em"BABc\
|1"G"dBGB "Am"cAAe:|2"G"dBGB "Am"cAAG|]
